X:1
T:Stand on the Rock
T:Stand on the Rock
T:William Howard Doane
T:Christopher Ruby Blackall, 1871
T:Public Domain Courtesy of the Cyber Hymnal™
T:Public Domain Courtesy of the Cyber Hymnal™
C:William Howard Doane
Z:Public Domain
Z:Courtesy of the Cyber Hymnal™
%%score ( 1 2 ) ( 3 4 )
L:1/8
Q:1/4=105
M:4/4
K:Eb
V:1 treble 
V:2 treble 
V:3 bass 
V:4 bass 
V:1
 [EG][FA] | [GB]2 [GB]2 [GB]2 [Ac][Ad] | [Ge]2 [GB]2 [GB]2 [GB][Ac] | [GB]2 [FA]2 [FA]2 [GB][Ac] | %4
w: 1.~Firm- ly|stand for God, in the|world’s mad strife, Tho’ the|bleak winds roar, and the|
w: 2.~Firm- ly|stand for right, with a|mo- tive pure, With a|true heart bold, and a|
w: 3.~Firm- ly|stand for truth, it will|serve you best; Tho’ it|wait- eth long, it is|
 [GB]2 [EG]2 [EG]2 [EG][FA] | [GB]2 [GB]2 [GB]2 [Gc][Ad] | [Ge]2 [GB]2 [GB]2 [GB][GB] | %7
w: waves beat high; ’Tis the|Rock a- lone giv- eth|strength and life, When the|
w: faith e’er strong; ’Tis the|Rock a- lone giv- eth|tri- umph sure, O’er the|
w: sure at last; ’Tis the|Rock a- lone giv- eth|peace and rest, When the|
 [Ac]2 [Ac]2 [Ad]2 (cd) | [Ge]6 ||"^Refrain" [GB][GB] | [Ge]2 [Ge]>[Ge] [Ge]2 [Ge][Bd] | %11
w: hosts of sin are *|nigh.|||
w: world’s ar- ray of *|wrong.|Let us|stand on the Rock, Firm- ly|
w: storms of life are *|past.|||
 [Ac]2 [Ac]>[Ac] [Ac]2 [Ac]>[Ac] | [GB]2 [GB]2 [GB]2 ([FA][EG]) | [DF]6 E[EF] | %14
w: |||
w: stand on the Rock, On the|Rock of Christ a- *|lone; If the|
w: |||
 [EG]2 [EG][EG] [GB]2 [GB][GB] | [Ac]2 [Ac]2 !fermata![Ae]2 [Ae][Ac] | %16
w: ||
w: strife we en- dure, We shall|stand se- cure, ’Mid the|
w: ||
 [GB]2 [EB]>[FA] [EG]2 [DF]2 | E6 |] %18
w: ||
w: throng who sur- round the|throne.|
w: ||
V:2
 x2 | x8 | x8 | x8 | x8 | x8 | x8 | x6 A2 | x6 || x2 | x8 | x8 | x8 | x6 E x | x8 | x8 | x8 | E6 |] %18
V:3
 [E,B,][E,B,] | [E,B,]2 [E,E]2 [E,E]2 [E,E][E,B,] | [E,B,]2 [E,E]2 [E,E]2 [E,E][E,E] | %3
 [D,B,]2 [B,,B,]2 [B,,B,]2 [B,,B,][B,,B,] | [E,B,]2 [E,B,]2 [E,B,]2 [E,B,][E,B,] | %5
 [E,B,]2 [E,E]2 [E,E]2 [E,E][E,B,] | [E,B,]2 [E,E]2 [E,E]2 [E,E][E,E] | %7
 [A,E]2 [A,E]2 [F,B,]2 [B,,B,]2 | [E,B,]6 || [E,E][E,E] | %10
 [E,B,]2 [E,B,]>[E,B,] [E,B,]2 [E,B,][G,E] | [A,E]2 [A,E]>[A,E] [A,E]2 [A,E]>[A,E] | %12
 [E,E]2 [E,E]2 [E,E]2 B,2 | [B,,B,]6 [E,G,][E,A,] | [E,B,]2 [E,B,][E,B,] [E,E]2 [E,E][E,E] | %15
 [A,E]2 [A,E]2 !fermata![A,C]2 [A,C][A,E] | [B,E]2 [G,B,]>[A,C] B,2 [B,,A,]2 | [E,G,]6 |] %18
V:4
 x2 | x8 | x8 | x8 | x8 | x8 | x8 | x8 | x6 || x2 | x8 | x8 | x6 (D,E,) | x8 | x8 | x8 | %16
 x4 B,2 x2 | x6 |] %18

